build/svg/cmd/sc_changepolygon.svg

<?xml version="1.0" encoding="UTF-8" standalone="no"?>
<svg
   xmlns:dc="http://purl.org/dc/elements/1.1/"
   xmlns:cc="http://creativecommons.org/ns#"
   xmlns:rdf="http://www.w3.org/1999/02/22-rdf-syntax-ns#"
   xmlns:svg="http://www.w3.org/2000/svg"
   xmlns="http://www.w3.org/2000/svg"
   xmlns:sodipodi="http://sodipodi.sourceforge.net/DTD/sodipodi-0.dtd"
   xmlns:inkscape="http://www.inkscape.org/namespaces/inkscape"
   viewBox="0 0 16 16"
   version="1.1"
   id="svg6"
   sodipodi:docname="sc_changepolygon.svg"
   inkscape:export-filename="/home/jupiter007/Libreoffice yaru theme fullcolor/build/cmd/sc_changepolygon.png"
   inkscape:export-xdpi="95"
   inkscape:export-ydpi="95"
   inkscape:version="0.92.5 (2060ec1f9f, 2020-04-08)">
  <metadata
     id="metadata12">
    <rdf:RDF>
      <cc:Work
         rdf:about="">
        <dc:format>image/svg+xml</dc:format>
        <dc:type
           rdf:resource="http://purl.org/dc/dcmitype/StillImage" />
      </cc:Work>
    </rdf:RDF>
  </metadata>
  <defs
     id="defs10" />
  <sodipodi:namedview
     pagecolor="#ffffff"
     bordercolor="#666666"
     borderopacity="1"
     objecttolerance="10"
     gridtolerance="10"
     guidetolerance="10"
     inkscape:pageopacity="0"
     inkscape:pageshadow="2"
     inkscape:window-width="1920"
     inkscape:window-height="1011"
     id="namedview8"
     showgrid="false"
     inkscape:zoom="14.75"
     inkscape:cx="0.44067797"
     inkscape:cy="8"
     inkscape:window-x="0"
     inkscape:window-y="32"
     inkscape:window-maximized="1"
     inkscape:current-layer="svg6" />
  <path
     inkscape:connector-curvature="0"
     style="opacity:0.6;fill:#000000;stroke:#000000;stroke-width:2;stroke-linejoin:round;stroke-miterlimit:4;stroke-dasharray:none"
     id="path817"
     d="m 13.000006,1.9999678 -11.0000002,4 4.9999999,8.0000002 h 7.0000003 l -3,-6.0000002 z m -1.59375,1.6249999 -1.34375,4.0625001 -0.1562503,0.375 0.1875003,0.375 2.28125,4.5625002 H 7.5625057 l -4.0625,-6.4687502 z" />
  <path
     inkscape:connector-curvature="0"
     d="m 13.000006,1.9999678 -11.0000002,4 4.9999999,8.0000002 h 7.0000003 l -3,-6.0000002 z m -1.59375,1.6249999 -1.34375,4.0625001 -0.1562503,0.375 0.1875003,0.375 2.28125,4.5625002 H 7.5625057 l -4.0625,-6.4687502 z"
     id="path2"
     style="fill:#ffffff" />
  <circle
     style="opacity:1;vector-effect:none;fill:#762572;fill-opacity:1;stroke:none;stroke-width:3.49999976;stroke-linecap:butt;stroke-linejoin:round;stroke-miterlimit:4;stroke-dasharray:none;stroke-dashoffset:0;stroke-opacity:1"
     id="path2644"
     cy="12.5"
     cx="12.5"
     r="3.5" />
  <path
     d="m 12.5,9.9999999 c -0.433427,0 -0.832855,0.1201001 -1.1875,0.3125001 l 0.75,0.75 C 12.199594,11.0215 12.349209,11 12.5,11 c 0.831,0 1.5,0.669 1.5,1.5 0,0.1508 -0.02148,0.3004 -0.0625,0.4375 l 0.75,0.75 C 14.879995,13.3328 15,12.9334 15,12.5 15,11.115 13.885,9.9999999 12.5,9.9999999 Z M 10.3125,11.3125 C 10.120005,11.6672 10,12.0666 10,12.5 c 0,1.385 1.115,2.5 2.5,2.5 0.433427,0 0.832855,-0.1201 1.1875,-0.3125 l -0.75,-0.75 C 12.800406,13.9785 12.650791,14 12.5,14 11.669,14 11,13.331 11,12.5 c 0,-0.1508 0.02147,-0.3004 0.0625,-0.4375 z"
     id="path4"
     inkscape:connector-curvature="0"
     style="fill:#ffffff;fill-opacity:1"
     sodipodi:nodetypes="sccssccsscssccsscc" />
</svg>

<svg xmlns="http://www.w3.org/2000/svg" viewBox="0 0 16 16"><path d="M13 2L2 6l5 8h7l-3-6zm-1.594 1.625l-1.343 4.062-.157.375.188.375L12.375 13H7.563L3.5 6.531z" opacity=".6" stroke="#000" stroke-width="2" stroke-linejoin="round"/><path d="M13 2L2 6l5 8h7l-3-6zm-1.594 1.625l-1.343 4.062-.157.375.188.375L12.375 13H7.563L3.5 6.531z" fill="#fff"/><circle cy="12.5" cx="12.5" r="3.5" fill="#762572"/><path d="M12.5 10c-.433 0-.833.12-1.188.313l.75.75c.138-.042.287-.063.438-.063.831 0 1.5.669 1.5 1.5 0 .15-.021.3-.063.438l.75.75c.193-.355.313-.755.313-1.188 0-1.385-1.115-2.5-2.5-2.5zm-2.188 1.313A2.476 2.476 0 0010 12.5c0 1.385 1.115 2.5 2.5 2.5.433 0 .833-.12 1.188-.313l-.75-.75A1.539 1.539 0 0112.5 14c-.831 0-1.5-.669-1.5-1.5 0-.15.021-.3.063-.438z" fill="#fff"/></svg>
